X: 1429
T: Nazîrin Yok Senin
C: Tanburî Cemil Bey
O: Turkey
F: http://compmusic.upf.edu/node/140
N: evic--sarki--aksaksemai--nazirin_yok--tanburi_cemil_bey
N: makam= evic
N: form= sarki
N: usul= aksaksemai = 10/8
M: 10/8
L: 1/16
K: C _1/4B ^f ^c 
Q: 1/4=108
%%MIDI tuningsystem comma53
f4 d2 f4  | g3/2f/ ga g3/2f/ ^ef eg  | \
w:  Ah  na zî  |  rin  *  *  *  yok   | 
.f4 d2 e3d  | e2 {f}ef g2 {b}ag f3/2e/  | 
w:  *  se nin   |  ey  *  *  *  mâh   | 
d4 fg a4  | _7/8b3/2a/ bc' a4 gf  | =c'3/2=b/ a2 gf e3d  | \
w:  *  *  *  yer  |  de  *  *  *  mâh   |  *  *  *  *  *  yer  | 
f2 g2 fg a2 gf  | 
w:  de  *  *  *  *  a  | 
f4 ef ga gf  | =c'3/2=b/ ab a4 (3gfg  | \
w:  man   A *  rar   |  gön *  *  *  lüm   | 
e3d ef ge2d  | 
w:  *  *  se *  ni   | 
ed2=B =c3/2B/ cd Bc  | A4 G2 {B}A3d  | \
w:  sey *  *  yâ  |  *  re *  ler  | 
d3/2=c/ de d=f ed c=B  | 
w:  de  *  *  *  sey  | 
A2 GF d=c =BA2B  | AG GF FG A2 GF  | \
w:  yâ *  *  re *  ler  |  *  *  *  *  de  *  *  a  | 
F4 ef ga gf  | 
w:  man   A *  rar   | 
=c'3/2=b/ ab a4 (3gfg  | e3d ef ge2d  | \
w:  gön *  *  *  lüm   |  *  *  se *  ni   | 
ed2=B =c3/2B/ cd Bc  | 
w:  sey *  *  yâ  | 
A4 G2 {B}A3d  | d3/2=c/ de d=f ed c=B  | \
w:  *  re *  ler  |  de  *  *  *  sey  | 
A2 GF d=c =BA2B  | 
w:  yâ *  *  re *  ler  | 
AG GF FG A2 GF  | z10  | F2 df2d2{g}f3  | \
w:  *  *  *  *  de  *  *  a  |  |  man   Ba kar  bî  | 
f2 ag f^e gf3  | 
w:  çâ  | 
d2 e2 =fe dc =B=c  | d2 ^1/4fe dc3/2=B/A3  | \
w:  re  her  *  şeb   |  ah   | 
fg a3a ga3  | 
w:  ah   | 
a=b =c'{d'}c' ba g=f3  | a3f2a gf ^eg  | \
w:   |  ah_ e der   | 
f2 =ba gf ga3  | 
w:  de   SAZ  | 
g2 a2 =ba gf2g  | a4-aa gf3/2e/d  | ef ge dd ed2=B  | 
w:  A rar  *  gön  |  lüm   |  se *  ni  *  *  sey  | 
A4-AA GA3  | A2 =B2 AB cd2c  | de f2 ef ga3  | \
w:  yâ  |  re ler *  de   |  sey  | 
f3d2e2=f3/2e/d  | 
w:  yâ re ler  | 
.d2 ag f^e gf3  | z20  | f4 efga gf=c'3/2=b/ aba4(3gfg  | 
w:  de   SAZ  |  |  man   A *  rar  *  *  *  gön *  *  *  lüm   | 
e3d efge2ded2=B=c3/2B/ cdBc  | A4 G2{B}A3dd3/2=c/ ded=f edc=B  | 
w:  *  *  se *  ni  *  *  sey *  *  yâ  |  *  re *  ler *  de  *  *  *  sey  | 
A2GF d=c=BA2BAG GFFG A2GF  | F4 efga gf=c'3/2=b/ aba4(3gfg  | 
w:  yâ *  *  re *  ler *  *  *  *  *  *  de  *  *  a  |  man   A *  rar  *  *  *  gön *  *  *  lüm   | 
e3d efge2ded2=B=c3/2B/ cdBc  | A4 G2{B}A3dd3/2=c/ ded=f edc=B  | 
w:  *  *  se *  ni  *  *  sey *  *  yâ  |  *  re *  ler *  de  *  *  *  sey  | 
A2GF d=c=BA2BAG GFFG A2GF  | z10  | F2 |
w:  yâ *  *  re *  ler *  *  *  *  *  *  de  *  *  a  |  |  man    | 


